public/im/ic_im_failed.svg

<?xml version="1.0" encoding="UTF-8"?>
<svg width="40px" height="40px" viewBox="0 0 40 40" version="1.1" xmlns="http://www.w3.org/2000/svg" xmlns:xlink="http://www.w3.org/1999/xlink">
    <!-- Generator: Sketch 63.1 (92452) - https://sketch.com -->
    <title>ic_im_failed</title>
    <desc>Created with Sketch.</desc>
    <g id="ic_im_failed" stroke="none" stroke-width="1" fill="none" fill-rule="evenodd">
        <g id="警告" fill-rule="nonzero">
            <rect id="矩形" fill="#000000" opacity="0" x="0" y="0" width="40" height="40"></rect>
            <path d="M20,36 C11.1636364,36 4,28.8363636 4,20 C4,11.1636364 11.1636364,4 20,4 C28.8363636,4 36,11.1636364 36,20 C36,28.8363636 28.8363636,36 20,36 Z M20,24 C20.736,24 21.3330909,23.3367273 21.3330909,22.5185455 L21.3330909,12.1476364 C21.3330909,11.3301818 20.7367273,10.6669091 20,10.6669091 C19.264,10.6669091 18.6669091,11.3301818 18.6669091,12.1476364 L18.6669091,22.5185455 C18.6669091,23.3367273 19.2632727,24 20,24 Z M20,26.6669091 C19.5161784,26.6556091 19.0641936,26.9072638 18.8189619,27.3244836 C18.5737302,27.7417035 18.5737302,28.2590238 18.8189619,28.6762437 C19.0641936,29.0934635 19.5161784,29.3451181 20,29.3338182 C20.7243157,29.3169013 21.3026745,28.7248768 21.3026745,28.0003636 C21.3026745,27.2758505 20.7243157,26.6838259 20,26.6669091 Z" id="形状" fill="#EB1031"></path>
        </g>
    </g>
</svg>

<svg xmlns="http://www.w3.org/2000/svg" width="40" height="40" viewBox="0 0 40 40"><title>ic_im_failed</title><path fill="#EB1031" fill-rule="nonzero" d="M20 36c-8.836 0-16-7.164-16-16S11.164 4 20 4s16 7.164 16 16-7.164 16-16 16zm0-12c.736 0 1.333-.663 1.333-1.481V12.148c0-.818-.596-1.481-1.333-1.481-.736 0-1.333.663-1.333 1.48V22.52c0 .818.596 1.481 1.333 1.481zm0 2.667a1.334 1.334 0 1 0-.062 2.667A1.334 1.334 0 0 0 20 26.667z"/></svg>
